svgs/materials/action/anchor.svg

<svg xmlns="http://www.w3.org/2000/svg" enable-background="new 0 0 24 24" height="24" viewBox="0 0 24 24" width="24"><g><rect fill="none" height="24" width="24"/><path d="M17,15l1.55,1.55c-0.96,1.69-3.33,3.04-5.55,3.37V11h3V9h-3V7.82C14.16,7.4,15,6.3,15,5c0-1.65-1.35-3-3-3S9,3.35,9,5 c0,1.3,0.84,2.4,2,2.82V9H8v2h3v8.92c-2.22-0.33-4.59-1.68-5.55-3.37L7,15l-4-3v3c0,3.88,4.92,7,9,7s9-3.12,9-7v-3L17,15z M12,4 c0.55,0,1,0.45,1,1s-0.45,1-1,1s-1-0.45-1-1S11.45,4,12,4z"/></g></svg>

<?xml version="1.0" encoding="UTF-8" standalone="no"?>
<svg
   enable-background="new 0 0 24 24"
   height="24"
   viewBox="0 0 24 24"
   width="24"
   version="1.1"
   id="svg206"
   sodipodi:docname="anchor.svg"
   inkscape:version="1.2 (dc2aeda, 2022-05-15)"
   xmlns:inkscape="http://www.inkscape.org/namespaces/inkscape"
   xmlns:sodipodi="http://sodipodi.sourceforge.net/DTD/sodipodi-0.dtd"
   xmlns="http://www.w3.org/2000/svg"
   xmlns:svg="http://www.w3.org/2000/svg">
  <defs
     id="defs210" />
  <sodipodi:namedview
     id="namedview208"
     pagecolor="#ffffff"
     bordercolor="#000000"
     borderopacity="0.25"
     inkscape:showpageshadow="2"
     inkscape:pageopacity="0.0"
     inkscape:pagecheckerboard="0"
     inkscape:deskcolor="#d1d1d1"
     showgrid="false"
     inkscape:zoom="9.8333333"
     inkscape:cx="12.050847"
     inkscape:cy="12"
     inkscape:window-width="1309"
     inkscape:window-height="456"
     inkscape:window-x="0"
     inkscape:window-y="25"
     inkscape:window-maximized="0"
     inkscape:current-layer="svg206" />
  <path
     d="m 17,15 1.55,1.55 C 17.59,18.24 15.22,19.59 13,19.92 V 11 h 3 V 9 H 13 V 7.82 C 14.16,7.4 15,6.3 15,5 15,3.35 13.65,2 12,2 10.35,2 9,3.35 9,5 9,6.3 9.84,7.4 11,7.82 V 9 H 8 v 2 h 3 v 8.92 C 8.78,19.59 6.41,18.24 5.45,16.55 L 7,15 3,12 v 3 c 0,3.88 4.92,7 9,7 4.08,0 9,-3.12 9,-7 V 12 Z M 12,4 c 0.55,0 1,0.45 1,1 0,0.55 -0.45,1 -1,1 -0.55,0 -1,-0.45 -1,-1 0,-0.55 0.45,-1 1,-1 z"
     id="path202" />
</svg>
